!!!OTL: 1362. Rekruten.
!!!ARE: Europa, Mitteleuropa, Deutschland; France, Elsass
!!!SCT: E1362
!!!TXL: @@SWG
!!!YEM: Copyright 1995, estate of Helmut Schaffrath.
**kern	**text
*ICvox	*
*M6/8	*
*k[b-]	*
*F:	*
!LO:TX:a:t=Elſäſſiſch. Weckerlin II, S. 252.	!
{8c	D'_Re-
=1	=1
8a	-kru-
8a	-te
8a	ſin
8g	bra-
8g	-vi
8g	Sol-
=2	=2
4.f	-da-
4c}	-te,
{8c	d'_Re-
=3	=3
8b-	-kru-
8b-	-te
8b-	ſin
4a	bra-
8a	-vi
=4	=4
[4.g	Leut,
8g]	.
8r}	.
{16g	ſie
16g	miän
=5	=5
8a	Va-
8g	-ter
8a	und
8b-	Mut-
8a	-ter
8b-	ver-
=6	=6
4.cc	-laſ-
8ddL	-ſen,
8b-J}	.
{8g	es
=7	=7
8.f	kann
16e	ja
8f	nit
8ccL	an-
8b-J	.
8g	-ders
=8	=8
[4.f	ſein.
8f]	.
8r}	.
==	==
!!!AGN: Staende -, Soldaten -, Kriegs - Lied
!!!ONB: ESAC (Essen Associative Code) Database: ERK3
!!!AMT: compound duple
!!!AIN: vox
!!!EED: Helmut Schaffrath
!!!EEV: 1.0
!!!GTL: Staendelieder (Berufslieder). 1. Soldaten- und Kriegslieder. Soldatenlieder seit dem 30jaehr. Kriege.
!!!URL-scan: https://rosdok.uni-rostock.de/mcrviewer/recordIdentifier/rosdok_ppn745177999/iview2/phys_0239.iview2?x=-128.77276441889285&y=322.1811879478628&scale=0.5870222003877487&rotation=0&layout=singlePageLayout
!!!ENC: Anna Maria Matuszewska
!!!EEV: 2024/12/30
*-	*-
